X: 54
T:Greencastle, The (Hornpipe)
M:4/4
L:1/8
Q:180
R:Hornpipe
K:G
d>c|"G"B>GD>G B>GD>G|(3gag f>g e2 d>c|
"G"B>GD>G B>GD>G|"C"d>cB>c "D"A2 d>c|
"G"B>GD>G B>GD>G|(3gag f>g e2 d>c|
B>gf>g e>cA>F|G2 B2 G2::
g>a|b>ag>f e>fg>a|b>ag>f e2 f>g|
a>gf>e d>ef>g|a>gf>e d2e>f|
g>fg>d (3efg d>B|c>BA>B c>de>f|
g>fg>d e>cA>F|G2 B2 G2:|
